X: 100339
T: THE MERRY LADS OF AYR -- Reel
R: reel
B: K\"ohler's Violin Repository, v.3, 1885 p.236 #2
F: http://www.archive.org/details/klersviolinrepos03rugg
Z: 2012 John Chambers <jc:trillian.mit.edu>
N: The first phrase ends with a double bar preceded by a single dot, treated as a repeat sign.
N: The final g note is only partly printed.
M: C|
L: 1/8
K: C
uf !segno!|\
edcd cGGf | edce f2(f>g) | edcd cGGc | (A/B/c) (GE) A2 (A :| ud) |
c2(g>a) gede | c/c/c (g>a) {a}g2(f{gf}e) | cega gece | (f>g) (a/g/f/e) d2(de) |
~c2(g>a) gede | c/c/c (g>a) {a}g2(f{gf}e) | cega gece | faeg def"^Fine."g |]

%%sep 2 1 500

